images/3034756.svg

<?xml version="1.0" encoding="UTF-8"?>
<svg xmlns="http://www.w3.org/2000/svg" xmlns:xlink="http://www.w3.org/1999/xlink" width="300pt" height="300pt" viewBox="0 0 300 300" version="1.1">
<defs>
<g>
<symbol overflow="visible" id="glyph0-0">
<path style="stroke:none;" d="M 0.453125 1.59375 L 0.453125 -6.34375 L 4.953125 -6.34375 L 4.953125 1.59375 Z M 0.953125 1.09375 L 4.453125 1.09375 L 4.453125 -5.84375 L 0.953125 -5.84375 Z M 0.953125 1.09375 "/>
</symbol>
<symbol overflow="visible" id="glyph0-1">
<path style="stroke:none;" d="M 3.546875 -5.953125 C 2.898438 -5.953125 2.382812 -5.710938 2 -5.234375 C 1.625 -4.753906 1.4375 -4.101562 1.4375 -3.28125 C 1.4375 -2.445312 1.625 -1.789062 2 -1.3125 C 2.382812 -0.832031 2.898438 -0.59375 3.546875 -0.59375 C 4.191406 -0.59375 4.703125 -0.832031 5.078125 -1.3125 C 5.453125 -1.789062 5.640625 -2.445312 5.640625 -3.28125 C 5.640625 -4.101562 5.453125 -4.753906 5.078125 -5.234375 C 4.703125 -5.710938 4.191406 -5.953125 3.546875 -5.953125 Z M 3.546875 -6.6875 C 4.460938 -6.6875 5.195312 -6.375 5.75 -5.75 C 6.300781 -5.132812 6.578125 -4.3125 6.578125 -3.28125 C 6.578125 -2.238281 6.300781 -1.410156 5.75 -0.796875 C 5.195312 -0.179688 4.460938 0.125 3.546875 0.125 C 2.617188 0.125 1.878906 -0.179688 1.328125 -0.796875 C 0.773438 -1.410156 0.5 -2.238281 0.5 -3.28125 C 0.5 -4.3125 0.773438 -5.132812 1.328125 -5.75 C 1.878906 -6.375 2.617188 -6.6875 3.546875 -6.6875 Z M 3.546875 -6.6875 "/>
</symbol>
<symbol overflow="visible" id="glyph0-2">
<path style="stroke:none;" d="M 0.890625 -6.5625 L 2.078125 -6.5625 L 4.984375 -1.078125 L 4.984375 -6.5625 L 5.84375 -6.5625 L 5.84375 0 L 4.65625 0 L 1.75 -5.484375 L 1.75 0 L 0.890625 0 Z M 0.890625 -6.5625 "/>
</symbol>
<symbol overflow="visible" id="glyph0-3">
<path style="stroke:none;" d="M 0.890625 -6.5625 L 1.765625 -6.5625 L 1.765625 -3.875 L 5 -3.875 L 5 -6.5625 L 5.890625 -6.5625 L 5.890625 0 L 5 0 L 5 -3.125 L 1.765625 -3.125 L 1.765625 0 L 0.890625 0 Z M 0.890625 -6.5625 "/>
</symbol>
</g>
</defs>
<g id="surface51397">
<rect x="0" y="0" width="300" height="300" style="fill:rgb(100%,100%,100%);fill-opacity:1;stroke:none;"/>
<path style="fill:none;stroke-width:1;stroke-linecap:butt;stroke-linejoin:miter;stroke:rgb(0%,0%,0%);stroke-opacity:1;stroke-miterlimit:10;" d="M 180.082031 193.578125 L 180.082031 193.578125 M 178.414062 196.074219 L 179.367188 196.492188 M 176.75 198.566406 L 178.65625 199.40625 M 175.082031 201.0625 L 177.945312 202.320312 M 173.417969 203.558594 L 177.234375 205.234375 M 171.75 206.050781 L 176.523438 208.148438 M 170.085938 208.546875 L 175.8125 211.0625 M 168.417969 211.042969 L 175.101562 213.980469 M 166.808594 213.453125 L 174.414062 216.796875 "/>
<path style="fill:none;stroke-width:1.2;stroke-linecap:butt;stroke-linejoin:miter;stroke:rgb(0%,0%,0%);stroke-opacity:1;stroke-miterlimit:10;" d="M 180.082031 193.578125 L 203.476562 191.003906 "/>
<path style="fill:none;stroke-width:1.2;stroke-linecap:butt;stroke-linejoin:miter;stroke:rgb(0%,0%,0%);stroke-opacity:1;stroke-miterlimit:10;" d="M 180.082031 193.578125 L 173.117188 184.089844 "/>
<path style="fill:none;stroke-width:1.2;stroke-linecap:butt;stroke-linejoin:miter;stroke:rgb(0%,0%,100%);stroke-opacity:1;stroke-miterlimit:10;" d="M 173.117188 184.089844 L 166.152344 174.601562 "/>
<path style="fill:none;stroke-width:1.2;stroke-linecap:butt;stroke-linejoin:miter;stroke:rgb(0%,0%,0%);stroke-opacity:1;stroke-miterlimit:10;" d="M 203.476562 191.003906 L 212.945312 169.457031 "/>
<path style="fill:none;stroke-width:1.2;stroke-linecap:butt;stroke-linejoin:miter;stroke:rgb(0%,0%,0%);stroke-opacity:1;stroke-miterlimit:10;" d="M 212.945312 169.457031 L 236.339844 166.882812 "/>
<path style="fill:none;stroke-width:1.2;stroke-linecap:butt;stroke-linejoin:miter;stroke:rgb(0%,0%,0%);stroke-opacity:1;stroke-miterlimit:10;" d="M 214.679688 163.695312 L 233.394531 161.636719 "/>
<path style="fill:none;stroke-width:1.2;stroke-linecap:butt;stroke-linejoin:miter;stroke:rgb(0%,0%,0%);stroke-opacity:1;stroke-miterlimit:10;" d="M 199.019531 150.480469 L 212.945312 169.457031 "/>
<path style="fill:none;stroke-width:1.2;stroke-linecap:butt;stroke-linejoin:miter;stroke:rgb(0%,0%,0%);stroke-opacity:1;stroke-miterlimit:10;" d="M 236.339844 166.882812 L 245.8125 145.335938 "/>
<path style="fill:none;stroke-width:1.2;stroke-linecap:butt;stroke-linejoin:miter;stroke:rgb(0%,0%,0%);stroke-opacity:1;stroke-miterlimit:10;" d="M 245.8125 145.335938 L 231.882812 126.363281 "/>
<path style="fill:none;stroke-width:1.2;stroke-linecap:butt;stroke-linejoin:miter;stroke:rgb(0%,0%,0%);stroke-opacity:1;stroke-miterlimit:10;" d="M 239.953125 146.714844 L 228.8125 131.535156 "/>
<path style="fill:none;stroke-width:1.2;stroke-linecap:butt;stroke-linejoin:miter;stroke:rgb(0%,0%,0%);stroke-opacity:1;stroke-miterlimit:10;" d="M 231.882812 126.363281 L 208.488281 128.933594 "/>
<path style="fill:none;stroke-width:1.2;stroke-linecap:butt;stroke-linejoin:miter;stroke:rgb(0%,0%,0%);stroke-opacity:1;stroke-miterlimit:10;" d="M 231.882812 126.363281 L 236.621094 115.585938 "/>
<path style="fill:none;stroke-width:1.2;stroke-linecap:butt;stroke-linejoin:miter;stroke:rgb(100%,0%,0%);stroke-opacity:1;stroke-miterlimit:10;" d="M 236.621094 115.585938 L 241.355469 104.8125 "/>
<path style="fill:none;stroke-width:1.2;stroke-linecap:butt;stroke-linejoin:miter;stroke:rgb(0%,0%,0%);stroke-opacity:1;stroke-miterlimit:10;" d="M 208.488281 128.933594 L 199.019531 150.480469 "/>
<path style="fill:none;stroke-width:1.2;stroke-linecap:butt;stroke-linejoin:miter;stroke:rgb(0%,0%,0%);stroke-opacity:1;stroke-miterlimit:10;" d="M 212.613281 133.316406 L 205.035156 150.554688 "/>
<path style="fill:none;stroke-width:1.2;stroke-linecap:butt;stroke-linejoin:miter;stroke:rgb(100%,0%,0%);stroke-opacity:1;stroke-miterlimit:10;" d="M 241.355469 104.8125 L 253.050781 103.527344 "/>
<path style="fill:none;stroke-width:1.2;stroke-linecap:butt;stroke-linejoin:miter;stroke:rgb(0%,0%,0%);stroke-opacity:1;stroke-miterlimit:10;" d="M 253.050781 103.527344 L 264.75 102.242188 "/>
<path style=" stroke:none;fill-rule:nonzero;fill:rgb(100%,100%,100%);fill-opacity:1;" d="M 237.355469 99.3125 L 245.355469 99.3125 L 245.355469 110.3125 L 237.355469 110.3125 Z M 237.355469 99.3125 "/>
<g style="fill:rgb(100%,0%,0%);fill-opacity:1;">
  <use xlink:href="#glyph0-1" x="237.355469" y="107.975586"/>
</g>
<path style="fill:none;stroke-width:1.2;stroke-linecap:butt;stroke-linejoin:miter;stroke:rgb(0%,0%,100%);stroke-opacity:1;stroke-miterlimit:10;" d="M 166.152344 174.601562 L 154.457031 175.890625 "/>
<path style="fill:none;stroke-width:1.2;stroke-linecap:butt;stroke-linejoin:miter;stroke:rgb(0%,0%,0%);stroke-opacity:1;stroke-miterlimit:10;" d="M 154.457031 175.890625 L 142.757812 177.175781 "/>
<path style=" stroke:none;fill-rule:nonzero;fill:rgb(100%,100%,100%);fill-opacity:1;" d="M 159.152344 169.101562 L 173.152344 169.101562 L 173.152344 180.101562 L 159.152344 180.101562 Z M 159.152344 169.101562 "/>
<g style="fill:rgb(0%,0%,100%);fill-opacity:1;">
  <use xlink:href="#glyph0-2" x="159.152344" y="177.764648"/>
  <use xlink:href="#glyph0-3" x="166.129883" y="177.764648"/>
</g>
<path style="fill:none;stroke-width:1;stroke-linecap:butt;stroke-linejoin:miter;stroke:rgb(0%,0%,0%);stroke-opacity:1;stroke-miterlimit:10;" d="M 128.832031 158.199219 L 128.832031 158.199219 M 130.160156 160.890625 L 131 160.273438 M 131.488281 163.582031 L 133.167969 162.347656 M 132.816406 166.273438 L 135.335938 164.421875 M 134.144531 168.960938 L 137.507812 166.492188 M 135.472656 171.652344 L 139.675781 168.566406 M 136.800781 174.34375 L 141.84375 170.640625 M 138.125 177.03125 L 144.011719 172.714844 M 139.410156 179.632812 L 146.105469 174.71875 "/>
<path style="fill:none;stroke-width:1.2;stroke-linecap:butt;stroke-linejoin:miter;stroke:rgb(0%,0%,0%);stroke-opacity:1;stroke-miterlimit:10;" d="M 128.832031 158.199219 L 105.4375 160.773438 "/>
<path style="fill:none;stroke-width:1.2;stroke-linecap:butt;stroke-linejoin:miter;stroke:rgb(0%,0%,0%);stroke-opacity:1;stroke-miterlimit:10;" d="M 128.832031 158.199219 L 133.566406 147.425781 "/>
<path style="fill:none;stroke-width:1.2;stroke-linecap:butt;stroke-linejoin:miter;stroke:rgb(100%,0%,0%);stroke-opacity:1;stroke-miterlimit:10;" d="M 133.566406 147.425781 L 138.300781 136.652344 "/>
<path style="fill:none;stroke-width:1.2;stroke-linecap:butt;stroke-linejoin:miter;stroke:rgb(0%,0%,0%);stroke-opacity:1;stroke-miterlimit:10;" d="M 105.4375 160.773438 L 91.511719 141.800781 "/>
<path style="fill:none;stroke-width:1.2;stroke-linecap:butt;stroke-linejoin:miter;stroke:rgb(0%,0%,0%);stroke-opacity:1;stroke-miterlimit:10;" d="M 99.578125 162.152344 L 88.4375 146.972656 "/>
<path style="fill:none;stroke-width:1.2;stroke-linecap:butt;stroke-linejoin:miter;stroke:rgb(0%,0%,0%);stroke-opacity:1;stroke-miterlimit:10;" d="M 95.96875 182.320312 L 105.4375 160.773438 "/>
<path style="fill:none;stroke-width:1.2;stroke-linecap:butt;stroke-linejoin:miter;stroke:rgb(0%,0%,0%);stroke-opacity:1;stroke-miterlimit:10;" d="M 91.511719 141.800781 L 68.117188 144.371094 "/>
<path style="fill:none;stroke-width:1.2;stroke-linecap:butt;stroke-linejoin:miter;stroke:rgb(0%,0%,0%);stroke-opacity:1;stroke-miterlimit:10;" d="M 68.117188 144.371094 L 58.644531 165.917969 "/>
<path style="fill:none;stroke-width:1.2;stroke-linecap:butt;stroke-linejoin:miter;stroke:rgb(0%,0%,0%);stroke-opacity:1;stroke-miterlimit:10;" d="M 72.238281 148.753906 L 64.664062 165.992188 "/>
<path style="fill:none;stroke-width:1.2;stroke-linecap:butt;stroke-linejoin:miter;stroke:rgb(0%,0%,0%);stroke-opacity:1;stroke-miterlimit:10;" d="M 68.117188 144.371094 L 61.152344 134.882812 "/>
<path style="fill:none;stroke-width:1.2;stroke-linecap:butt;stroke-linejoin:miter;stroke:rgb(0%,0%,100%);stroke-opacity:1;stroke-miterlimit:10;" d="M 61.152344 134.882812 L 54.1875 125.398438 "/>
<path style="fill:none;stroke-width:1.2;stroke-linecap:butt;stroke-linejoin:miter;stroke:rgb(0%,0%,0%);stroke-opacity:1;stroke-miterlimit:10;" d="M 58.644531 165.917969 L 72.570312 184.894531 "/>
<path style="fill:none;stroke-width:1.2;stroke-linecap:butt;stroke-linejoin:miter;stroke:rgb(0%,0%,0%);stroke-opacity:1;stroke-miterlimit:10;" d="M 58.644531 165.917969 L 46.949219 167.207031 "/>
<path style="fill:none;stroke-width:1.2;stroke-linecap:butt;stroke-linejoin:miter;stroke:rgb(100%,0%,0%);stroke-opacity:1;stroke-miterlimit:10;" d="M 46.949219 167.207031 L 35.25 168.492188 "/>
<path style="fill:none;stroke-width:1.2;stroke-linecap:butt;stroke-linejoin:miter;stroke:rgb(0%,0%,0%);stroke-opacity:1;stroke-miterlimit:10;" d="M 72.570312 184.894531 L 95.96875 182.320312 "/>
<path style="fill:none;stroke-width:1.2;stroke-linecap:butt;stroke-linejoin:miter;stroke:rgb(0%,0%,0%);stroke-opacity:1;stroke-miterlimit:10;" d="M 74.304688 179.132812 L 93.023438 177.074219 "/>
<path style=" stroke:none;fill-rule:nonzero;fill:rgb(100%,100%,100%);fill-opacity:1;" d="M 20.25 162.992188 L 35.25 162.992188 L 35.25 173.992188 L 20.25 173.992188 Z M 20.25 162.992188 "/>
<g style="fill:rgb(100%,0%,0%);fill-opacity:1;">
  <use xlink:href="#glyph0-3" x="20.25" y="171.655273"/>
  <use xlink:href="#glyph0-1" x="27.264648" y="171.655273"/>
</g>
<path style="fill:none;stroke-width:1.2;stroke-linecap:butt;stroke-linejoin:miter;stroke:rgb(0%,0%,100%);stroke-opacity:1;stroke-miterlimit:10;" d="M 54.1875 125.398438 L 58.925781 114.625 "/>
<path style="fill:none;stroke-width:1.2;stroke-linecap:butt;stroke-linejoin:miter;stroke:rgb(0%,0%,0%);stroke-opacity:1;stroke-miterlimit:10;" d="M 58.925781 114.625 L 63.660156 103.847656 "/>
<path style=" stroke:none;fill-rule:nonzero;fill:rgb(100%,100%,100%);fill-opacity:1;" d="M 47.1875 119.898438 L 61.1875 119.898438 L 61.1875 130.898438 L 47.1875 130.898438 Z M 47.1875 119.898438 "/>
<g style="fill:rgb(0%,0%,100%);fill-opacity:1;">
  <use xlink:href="#glyph0-2" x="47.1875" y="128.561523"/>
  <use xlink:href="#glyph0-3" x="54.165039" y="128.561523"/>
</g>
<path style="fill:none;stroke-width:1.2;stroke-linecap:butt;stroke-linejoin:miter;stroke:rgb(0%,0%,0%);stroke-opacity:1;stroke-miterlimit:10;" d="M 65.890625 102.210938 L 58.929688 92.722656 "/>
<path style="fill:none;stroke-width:1.2;stroke-linecap:butt;stroke-linejoin:miter;stroke:rgb(100%,0%,0%);stroke-opacity:1;stroke-miterlimit:10;" d="M 58.929688 92.722656 L 51.964844 83.238281 "/>
<path style="fill:none;stroke-width:1.2;stroke-linecap:butt;stroke-linejoin:miter;stroke:rgb(0%,0%,0%);stroke-opacity:1;stroke-miterlimit:10;" d="M 61.425781 105.488281 L 54.464844 96 "/>
<path style="fill:none;stroke-width:1.2;stroke-linecap:butt;stroke-linejoin:miter;stroke:rgb(100%,0%,0%);stroke-opacity:1;stroke-miterlimit:10;" d="M 54.464844 96 L 47.5 86.511719 "/>
<path style=" stroke:none;fill-rule:nonzero;fill:rgb(100%,100%,100%);fill-opacity:1;" d="M 41.734375 79.375 L 49.734375 79.375 L 49.734375 90.375 L 41.734375 90.375 Z M 41.734375 79.375 "/>
<g style="fill:rgb(100%,0%,0%);fill-opacity:1;">
  <use xlink:href="#glyph0-1" x="41.734375" y="88.038086"/>
</g>
<path style=" stroke:none;fill-rule:nonzero;fill:rgb(100%,100%,100%);fill-opacity:1;" d="M 131.300781 131.152344 L 146.300781 131.152344 L 146.300781 142.152344 L 131.300781 142.152344 Z M 131.300781 131.152344 "/>
<g style="fill:rgb(100%,0%,0%);fill-opacity:1;">
  <use xlink:href="#glyph0-1" x="131.300781" y="139.81543"/>
  <use xlink:href="#glyph0-3" x="138.642578" y="139.81543"/>
</g>
</g>
</svg>

<svg xmlns="http://www.w3.org/2000/svg" xmlns:xlink="http://www.w3.org/1999/xlink" width="300pt" height="300pt" viewBox="0 0 300 300"><defs><symbol overflow="visible"><path d="M.453 1.594v-7.938h4.5v7.938zm.5-.5h3.5v-6.938h-3.5zm0 0"/></symbol><symbol overflow="visible" id="a"><path d="M3.547-5.953c-.65 0-1.164.242-1.547.72-.375.48-.563 1.13-.563 1.952 0 .835.188 1.49.563 1.967.383.48.898.72 1.547.72.644 0 1.156-.24 1.53-.72.376-.476.564-1.132.564-1.968 0-.822-.187-1.474-.562-1.954-.375-.477-.887-.72-1.53-.72zm0-.734c.914 0 1.648.312 2.203.937.55.617.828 1.438.828 2.47 0 1.042-.277 1.87-.828 2.483-.555.617-1.29.922-2.203.922-.93 0-1.668-.305-2.22-.922C.774-1.41.5-2.237.5-3.28c0-1.033.273-1.853.828-2.47.55-.625 1.29-.938 2.22-.938zm0 0"/></symbol><symbol overflow="visible" id="b"><path d="M.89-6.563H2.08l2.906 5.485v-5.484h.86V0H4.656L1.75-5.484V0H.89zm0 0"/></symbol><symbol overflow="visible" id="c"><path d="M.89-6.563h.876v2.688H5v-2.688h.89V0H5v-3.125H1.766V0H.89zm0 0"/></symbol></defs><g><path fill="#fff" d="M0 0h300v300H0z"/><path d="M180.082 193.578m-1.668 2.496l.953.418m-2.617 2.074l1.906.84m-3.574 1.656l2.863 1.258m-4.527 1.24l3.816 1.674m-5.484.817l4.773 2.098m-6.437.4l5.726 2.514m-7.394-.02l6.684 2.938m-8.293-.527l7.604 3.344" stroke="#000" stroke-miterlimit="10" fill="none"/><path d="M180.082 193.578l23.395-2.574M180.082 193.578l-6.965-9.488" stroke-width="1.2" stroke="#000" stroke-miterlimit="10" fill="none"/><path d="M173.117 184.09l-6.965-9.488" stroke-width="1.2" stroke="#00f" stroke-miterlimit="10" fill="none"/><path d="M203.477 191.004l9.468-21.547M212.945 169.457l23.395-2.574M214.68 163.695l18.715-2.058M199.02 150.48l13.925 18.977M236.34 166.883l9.472-21.547M245.813 145.336l-13.93-18.973M239.953 146.715l-11.14-15.18M231.883 126.363l-23.395 2.57M231.883 126.363l4.738-10.777" stroke-width="1.2" stroke="#000" stroke-miterlimit="10" fill="none"/><path d="M236.62 115.586l4.735-10.773" stroke-width="1.2" stroke="#f00" stroke-miterlimit="10" fill="none"/><path d="M208.488 128.934l-9.468 21.546M212.613 133.316l-7.578 17.24" stroke-width="1.2" stroke="#000" stroke-miterlimit="10" fill="none"/><path d="M241.355 104.813l11.696-1.286" stroke-width="1.2" stroke="#f00" stroke-miterlimit="10" fill="none"/><path d="M253.05 103.527l11.7-1.285" stroke-width="1.2" stroke="#000" stroke-miterlimit="10" fill="none"/><path d="M237.355 99.313h8v11h-8zm0 0" fill="#fff"/><use xlink:href="#a" x="237.355" y="107.976" fill="#f00"/><path d="M166.152 174.602l-11.695 1.29" stroke-width="1.2" stroke="#00f" stroke-miterlimit="10" fill="none"/><path d="M154.457 175.89l-11.7 1.286" stroke-width="1.2" stroke="#000" stroke-miterlimit="10" fill="none"/><path d="M159.152 169.102h14v11h-14zm0 0" fill="#fff"/><g fill="#00f"><use xlink:href="#b" x="159.152" y="177.765"/><use xlink:href="#c" x="166.13" y="177.765"/></g><path d="M128.832 158.2m1.328 2.69l.84-.617m.488 3.31l1.68-1.235m-.352 3.925l2.52-1.85m-1.19 4.538l3.362-2.468m-2.035 5.16l4.203-3.086m-2.875 5.778l5.044-3.703m-3.72 6.39l5.888-4.315m-4.602 6.918l6.695-4.914" stroke="#000" stroke-miterlimit="10" fill="none"/><path d="M128.832 158.2l-23.394 2.573M128.832 158.2l4.734-10.774" stroke-width="1.2" stroke="#000" stroke-miterlimit="10" fill="none"/><path d="M133.566 147.426l4.735-10.774" stroke-width="1.2" stroke="#f00" stroke-miterlimit="10" fill="none"/><path d="M105.438 160.773L91.51 141.8M99.578 162.152l-11.14-15.18M95.97 182.32l9.468-21.547M91.512 141.8l-23.395 2.57M68.117 144.37l-9.472 21.548M72.238 148.754l-7.574 17.238M68.117 144.37l-6.965-9.487" stroke-width="1.2" stroke="#000" stroke-miterlimit="10" fill="none"/><path d="M61.152 134.883l-6.965-9.485" stroke-width="1.2" stroke="#00f" stroke-miterlimit="10" fill="none"/><path d="M58.645 165.918l13.925 18.977M58.645 165.918l-11.696 1.29" stroke-width="1.2" stroke="#000" stroke-miterlimit="10" fill="none"/><path d="M46.95 167.207l-11.7 1.285" stroke-width="1.2" stroke="#f00" stroke-miterlimit="10" fill="none"/><path d="M72.57 184.895l23.4-2.575M74.305 179.133l18.718-2.06" stroke-width="1.2" stroke="#000" stroke-miterlimit="10" fill="none"/><path d="M20.25 162.992h15v11h-15zm0 0" fill="#fff"/><g fill="#f00"><use xlink:href="#c" x="20.25" y="171.655"/><use xlink:href="#a" x="27.265" y="171.655"/></g><path d="M54.188 125.398l4.738-10.773" stroke-width="1.2" stroke="#00f" stroke-miterlimit="10" fill="none"/><path d="M58.926 114.625l4.734-10.777" stroke-width="1.2" stroke="#000" stroke-miterlimit="10" fill="none"/><path d="M47.188 119.898h14v11h-14zm0 0" fill="#fff"/><g fill="#00f"><use xlink:href="#b" x="47.188" y="128.562"/><use xlink:href="#c" x="54.165" y="128.562"/></g><path d="M65.89 102.21l-6.96-9.487" stroke-width="1.2" stroke="#000" stroke-miterlimit="10" fill="none"/><path d="M58.93 92.723l-6.965-9.485" stroke-width="1.2" stroke="#f00" stroke-miterlimit="10" fill="none"/><path d="M61.426 105.488L54.466 96" stroke-width="1.2" stroke="#000" stroke-miterlimit="10" fill="none"/><path d="M54.465 96L47.5 86.512" stroke-width="1.2" stroke="#f00" stroke-miterlimit="10" fill="none"/><path d="M41.734 79.375h8v11h-8zm0 0" fill="#fff"/><use xlink:href="#a" x="41.734" y="88.038" fill="#f00"/><path d="M131.3 131.152h15v11h-15zm0 0" fill="#fff"/><g fill="#f00"><use xlink:href="#a" x="131.301" y="139.815"/><use xlink:href="#c" x="138.643" y="139.815"/></g></g></svg>
